X:1
T:Title
L:1/8
Q:1/4=90
M:4/4
K:Ab
V:1 treble nm="Church Organ, Staff"
V:1
 E2 B2 B2 B2 | B=ABc B2 B2 | E2 A2 A2 A2 | AGAf e4 | dccB =A2 B2 | c2 B2 A2 G2 | FcBA G2 B,2 | %7
w: By~George~Edgar~Oliver * * *|||||||
 F3 E E4 | E=EEF FGGF | FE=DE c2 c2 | F_GGF Fddc | cBBF B4 | Gffe e2 d2 | c2 B2 A2 F2 | %14
w: |||||||
 GB=dc B2 E2 | A2 F2 E4 | E2 B2 B2 B2 | B=ABc B4 | E2 A2 A2 A2 | AGAf e4 | c2 B2 A2 f2 | %21
w: |||||||
 e2 d2 c2 B2 | AcBA E2 B2- | BA A4 z2 |] %24
w: |||

